svgs/picpay.svg

<svg width="192" height="192" viewBox="0 0 192 192" fill="none" xmlns="http://www.w3.org/2000/svg">
<path fill-rule="evenodd" clip-rule="evenodd" d="M45.2589 77.5942V112.454H68.1142C72.9577 112.465 77.613 110.59 81.0838 107.23C82.7275 105.645 84.0345 103.749 84.927 101.653C85.8195 99.5561 86.2794 97.3027 86.2794 95.0261C86.2794 92.7495 85.8195 90.4961 84.927 88.3998C84.0345 86.3034 82.7275 84.4068 81.0838 82.8225C77.6133 79.4614 72.9581 77.5847 68.1142 77.5942H45.2589ZM22 161.996V77.5942H45.2192V56H68.1142C78.6087 56.0006 88.6861 60.087 96.1899 67.3848C99.9249 70.9662 102.896 75.2599 104.925 80.0091C106.954 84.7584 108 89.8658 108 95.0261C108 100.186 106.954 105.294 104.925 110.043C102.896 114.792 99.9249 119.086 96.1899 122.667C88.6858 129.964 78.6083 134.049 68.1142 134.049H45.2589V162L22 161.996Z" stroke="black" stroke-width="12" stroke-linejoin="round"/>
<path d="M170 30H128V72H170V30Z" stroke="black" stroke-width="12" stroke-linecap="round" stroke-linejoin="round"/>
<rect x="143" y="45" width="12" height="12" rx="2" fill="black"/>
</svg>

<svg xmlns="http://www.w3.org/2000/svg" width="192" height="192" fill="none" xmlns:v="https://vecta.io/nano"><path d="M45.259 77.594v34.86h22.855c4.844.011 9.499-1.864 12.97-5.224a17 17 0 0 0 3.843-5.577 16.92 16.92 0 0 0 0-13.253 16.99 16.99 0 0 0-3.843-5.577 18.59 18.59 0 0 0-12.97-5.228H45.259zM22 161.996V77.594h23.219V56h22.895c10.495.001 20.572 4.087 28.076 11.385 3.735 3.581 6.706 7.875 8.735 12.624a38.22 38.22 0 0 1 0 30.034c-2.029 4.749-5 9.043-8.735 12.624-7.504 7.297-17.582 11.382-28.076 11.382H45.259V162L22 161.996zM170 30h-42v42h42V30z" stroke="#000" stroke-width="12" stroke-linejoin="round"/><rect x="143" y="45" width="12" height="12" rx="2" fill="#000"/></svg>
